www/assets/icons/format_list_numbered.svg

<svg xmlns="http://www.w3.org/2000/svg" width="24" height="24" viewBox="0 0 24 24" fill='currentColor'><path d="M2.5 17h2v.5h-1v1h1v.5h-2v1h3v-4h-3zm1-9h1V4h-2v1h1zm-1 3h1.8l-1.8 2.1v.9h3v-1H3.7l1.8-2.1V10h-3zm5-6v2h14V5zm0 14h14v-2h-14zm0-6h14v-2h-14z"/></svg>

<svg width="24" height="24" viewBox="0 0 24 24" xmlns="http://www.w3.org/2000/svg" fill='currentColor'><path d="M2.5 17H4.5V17.5H3.5V18.5H4.5V19H2.5V20H5.5V16H2.5V17ZM3.5 8H4.5V4H2.5V5H3.5V8ZM2.5 11H4.3L2.5 13.1V14H5.5V13H3.7L5.5 10.9V10H2.5V11ZM7.5 5V7H21.5V5H7.5ZM7.5 19H21.5V17H7.5V19ZM7.5 13H21.5V11H7.5V13Z"/></svg>
